X: 1
T: Phrygian Whistle, The
M: 4/4
L: 1/8
R: reel
K: Gmaj
c|Bffe f2ef|geef decd|Bffe f2ab|gceg ~f3:|
B|b~f3 g~f3|fedf edB2|b~f3 g~f3|efaf f~a3|
~b3f g~f3|fedf edB2|ABdB eBfB|bBBA FEDE||
F~B3 c~B3|f~B3 cBDE|F~B3 cBfB|~B2cA ~B3E|
F~B3 c~B3|f~B3 AGF2|EDEF GABd|eBBA ~B3B||
bBaB gBfB|E~F3 A~B3|bBaB gBfB|edef affa|
~b3f g~f3|fedf edB2|ABdB fedc|edcA ~B3||
